X:1
T:Title
L:1/8
M:4/4
K:Ab
V:1 treble nm="Grand Piano"
V:1
 z4 z2[Q:1/4=100] C2 | G3 A GFFE | F3 G E2 D2 | C6 AB | c3 c dcBA | G6 EF | G3 A GFFE | %7
 F3 G E2 DC | D3 F E2 D2 | C6 EF | G3 A GFFE | F3 G E2 DC | D3 F E2 D2 | C6 G2 | G3 A B2 AG- | %15
 G G2 A B2 AG- | G G2 A c2 BA | G3 A/G/ F2 F2 | F3 G AGFE- | E F2 G AGFE | E F2 G E2 D2 | %21
[M:3/4] C6 |] %22

